src/assets/Icons/Services=Money back.svg

<svg width="80" height="80" viewBox="0 0 80 80" fill="none" xmlns="http://www.w3.org/2000/svg">
<path opacity="0.3" d="M80 40C80 62.0914 62.0914 80 40 80C17.9086 80 0 62.0914 0 40C0 17.9086 17.9086 0 40 0C62.0914 0 80 17.9086 80 40ZM10.9071 40C10.9071 56.0675 23.9325 69.0929 40 69.0929C56.0675 69.0929 69.0929 56.0675 69.0929 40C69.0929 23.9325 56.0675 10.9071 40 10.9071C23.9325 10.9071 10.9071 23.9325 10.9071 40Z" fill="#2F2E30"/>
<circle cx="40" cy="40" r="29" fill="black"/>
<path d="M28.0991 50.5993L28.0989 50.5991C27.2262 49.9484 26.4256 48.9207 25.8428 47.7591C25.2599 46.5974 24.9167 45.3452 24.9167 44.2667V31.8667C24.9167 29.5074 26.6715 26.9619 28.8912 26.1352L28.8921 26.1349L37.2084 23.0184C37.2085 23.0183 37.2086 23.0183 37.2086 23.0183C37.9621 22.7367 38.9616 22.5875 39.9834 22.5875C41.0051 22.5875 42.0046 22.7367 42.7581 23.0183C42.7581 23.0183 42.7582 23.0183 42.7583 23.0184L51.0746 26.1349L51.0755 26.1352C53.2952 26.9619 55.05 29.5074 55.05 31.8667V44.25C55.05 45.3372 54.7066 46.5893 54.1241 47.7484C53.5416 48.9074 52.7411 49.9314 51.8678 50.5825L51.8676 50.5827L44.7009 55.9327L44.7009 55.9326L44.6947 55.9374C43.412 56.9264 41.724 57.4333 40 57.4333C38.2774 57.4333 36.5852 56.927 35.2649 55.9487C35.2647 55.9485 35.2646 55.9484 35.2644 55.9483L28.0991 50.5993ZM37.7419 24.4315L37.7412 24.4318L29.4246 27.5485L29.4239 27.5487C28.5963 27.8603 27.855 28.5226 27.3241 29.2907C26.793 30.0591 26.4334 30.9898 26.4334 31.8833V44.2667C26.4334 45.1611 26.7439 46.1893 27.2009 47.1011C27.6578 48.0127 28.2933 48.8723 29.0009 49.4006L29.0009 49.4007L36.1672 54.7504C37.2292 55.5446 38.6283 55.925 40.0021 55.925C41.3761 55.925 42.7783 55.5446 43.8478 54.7517L43.8491 54.7507L51.0158 49.4007L51.0167 49.4C51.7314 48.8639 52.3669 48.0051 52.8222 47.0944C53.2776 46.1838 53.5834 45.1601 53.5834 44.2667V31.8667C53.5834 30.9805 53.2229 30.0538 52.6926 29.2865C52.1621 28.519 51.4223 27.8541 50.5976 27.5339L50.5977 27.5339L50.5921 27.5318L42.2755 24.4151L42.2755 24.415L42.2664 24.4118C41.6283 24.1866 40.8002 24.0832 40.0007 24.0854C39.2021 24.0876 38.3752 24.1952 37.7419 24.4315Z" fill="#FAFAFA" stroke="#FAFAFA"/>
<path d="M37.4131 41.0536L37.7667 41.4071L38.1202 41.0536L44.4035 34.7702C44.6916 34.4822 45.175 34.4822 45.4631 34.7702C45.7512 35.0583 45.7512 35.5417 45.4631 35.8298L38.2964 42.9965C38.1451 43.1477 37.9579 43.2167 37.7667 43.2167C37.5754 43.2167 37.3882 43.1477 37.2369 42.9965L34.5535 40.3131C34.2655 40.025 34.2655 39.5416 34.5535 39.2536C34.8416 38.9655 35.325 38.9655 35.6131 39.2536L37.4131 41.0536Z" fill="#FAFAFA" stroke="#FAFAFA"/>
</svg>

<svg xmlns="http://www.w3.org/2000/svg" width="80" height="80" fill="none" xmlns:v="https://vecta.io/nano"><path opacity=".3" d="M80 40c0 22.091-17.909 40-40 40S0 62.091 0 40 17.909 0 40 0s40 17.909 40 40zm-69.093 0c0 16.068 13.025 29.093 29.093 29.093S69.093 56.068 69.093 40 56.068 10.907 40 10.907 10.907 23.933 10.907 40z" fill="#2f2e30"/><circle cx="40" cy="40" r="29" fill="#000"/><path d="M28.099 50.599h0c-.873-.651-1.673-1.678-2.256-2.84s-.926-2.414-.926-3.492v-12.4c0-2.359 1.755-4.905 3.975-5.732h.001l8.316-3.116c.754-.282 1.753-.431 2.775-.431s2.021.149 2.775.431l8.316 3.117h.001c2.22.827 3.974 3.372 3.974 5.732V44.25c0 1.087-.343 2.339-.926 3.498s-1.383 2.183-2.256 2.834h0l-7.167 5.35h0l-.006.005c-1.283.989-2.971 1.496-4.695 1.496s-3.415-.506-4.735-1.485l-7.166-5.349zm9.643-26.168h-.001l-8.317 3.117h-.001c-.828.312-1.569.974-2.1 1.742s-.891 1.699-.891 2.593v12.383c0 .894.311 1.923.768 2.834s1.092 1.771 1.8 2.299h0l7.166 5.35c1.062.794 2.461 1.175 3.835 1.175s2.776-.38 3.846-1.173l.001-.001 7.167-5.35.001-.001c.715-.536 1.35-1.395 1.806-2.306s.761-1.934.761-2.828v-12.4c0-.886-.36-1.813-.891-2.58s-1.27-1.432-2.095-1.753h0l-.006-.002-8.317-3.117h0l-.009-.003c-.638-.225-1.466-.329-2.266-.326s-1.626.11-2.259.346zm-.329 16.623l.354.353.353-.353 6.283-6.283a.76.76 0 0 1 1.06 0 .76.76 0 0 1 0 1.06l-7.167 7.167c-.151.151-.338.22-.53.22s-.379-.069-.53-.22l-2.683-2.683a.76.76 0 0 1 0-1.059.76.76 0 0 1 1.06 0l1.8 1.8z" fill="#fafafa" stroke="#fafafa"/></svg>
